X: 6
T: Will You Come Home With Me
R: jig
M: 6/8
L: 1/8
K: Gmaj
|: d2 g fdc | B2 d cAF | ~G3 ~A3 | ~G3 ABc |
d2 g fdc | B2 d cAF | GG/G/G AGF | GDB G3 :|
|: d2 B cBA | B2 d cAF | ~G3 ~A3 | GG/G/G ABc |
d3 cBA | B2 d cAF | ~G3 AGF | GDB G3 :|


Tune 1220	Setting 1220

